!!!COM: Franz Schubert
!!!CNT: Deutsch
!!!TXO: Deutsch
!!!OTL: "Memnon"
!!!LYR: Johann Mayrhofer
!!!OPS: Op. 6
!!!ONM: No. 1
!!!ENC: Ben Fuhrman
!!!YOR: Schubert Lieder - Dietrich Fischer-Dieskau, and Elmar Budde, eds.
!!!YOR: New York: C. F. Peters, Vol. 2
!!!ODT: 1817/
!!NB: Only vocal melody encoded.
!!NB: First instance of melodic material only encoded.
**kern
*clef G2
*k[b-e-a-d-g-]
*M2/2
!!created: 08/07/06 4:20
!!proofed and posted: 08/07/06 4:20
!!edit time: 45 minutes
=5
2r
4r
8r
{8f
=6
4.f
8f
4.f
8f
=7
8.a
16a
8.a
16gn
qgn
4f
8f}
{8f
=8
4.f
8f
8.f
16f
8.gn
16f}
=9
{4.a
8gn
4gn
8.f
16cc
=10
4.bn
8bn
8.bn
16bn
8.bn
16bn
=11
[4cc
12cc]
12dd-
12b-
qb-
4a
8a}
{8a
=12
8.b
16b
12cc
12b
12cc
4ee
4dd
=13
4.ff
8a
(4a
8.cc
16b)
=14
4a}
4r
2r
!! rest to measure 16
=16
2r
8r
{8cc
8.ee
16cc
=17
4.an
8an
8.b
16b
12cc
12b
12cc
=18
4ee
4dd}
8.r
{16b
8.cc
16dd
=19
4.dd
8gn
8.an
16a
12b
12a
12b
=20
4dd
4cc}
4r
{4cc
=21
*k[b-]
4.cc
8cc
4b
4a
=22
(4g
4a
4b
4dd)
=23
[4cc
12cc]
12dd
12b
4a}
{8.cc
16a
=24
4f
8.a
16f
4d
8.dd
16c
=25
4c
8f
8a
(4cc
12dd
12cc)
12b
=26
4g
4a}
4r
{8.cc
16a
=27
4f
8.a
16f
4d
8.dd
16c
=28
4c
8f
8a
(4cc
12dd
12cc)
12e
=29
2g
4f}
4r
=30
2r
4r
{8.c
16f#
=31
(qa
2g)
8r
8g
8.g
16g
=32
8.g
16g
2b
4a
=33
qa
4g
4g}
8r
{8g
8.a
16b
=34
8.c
16c
[4d-
8d-]
8d-
8.c
16B
=35
qB
4A-
4A-}
4r
8r
{8ff
=36
(4ff
4bn)
8r
8bn
8bn
8bn
=37
8.bn
16bn
8.bn
16bn
8bn
8cc
8.cc
16cc
=38
8dd-
8b
8r
16b
16cc
qee-
8.dd-
16dd-
8.cc
16b
=39
qb
4a-
4a-}
4r
{4a-
=40
*k[b-e-a-d-g-]
8.g
16g
8.b
16a
qg
8.f
16f
12dd
12a
12f
=41
(4.f
8e)
4d}
8r
{8f
=42
2b
8r
8b
8.b
16e
=43
8.f-
16f-
8.e
16d-
qd-
8c
8c}
8r
{8e
=44
4.a
8g
(4f
12b
12a)
12g
=45
4f
4e}
4r
{4e
=46
4.a
8g
(4f
12dd
12b)
12g
=47
4f
4e}
4r
{4a
=48
4f
4dd
4e
4dd
=49
[4a
12a]
12g
12f
(4a
12g
12f)
12e
=50
4en
4f}
4r
{4a
=51
4f
4dd
4e-
4dd
=52
[4a
12a]
12g
12f
(4a
12g
12f)
12e
=53
qe
4d
4d}
2r
==
*-
